icons/shield_kr_expressway_3.svg

<svg width="25" height="20" viewBox="0 0 6.615 5.292" xmlns="http://www.w3.org/2000/svg">
 <path style="fill:#003f87;stroke:none;stroke-width:.282584;stroke-miterlimit:4;stroke-dasharray:none" d="M 6.07257,1.7199003 H 0.54243005 c 0.13690296,0.1899457 0.20127678,0.3939384 0.20127678,0.6118542 0,0.2913382 -0.0674113,0.451666 -0.2768259,0.6654923 -0.1587478,0.1603695 -0.32794243,0.4893656 -0.32794243,0.7352659 0,0.6094042 0.65879946,1.0370895 1.6045281,1.0370895 h 0.989802 c 0.1182119,0 0.2264176,0.042536 0.3007245,0.1147035 L 3.3074998,5.1597 3.5843257,4.8843057 C 3.6586277,4.8121371 3.766835,4.7696022 3.8850503,4.7696022 h 0.9931213 c 0.9423502,0 1.604528,-0.4276853 1.604528,-1.0370895 0,-0.2485723 -0.1725729,-0.5748964 -0.3279425,-0.7352659 C 5.9385914,2.7860928 5.8712928,2.6230927 5.8712928,2.3317545 c 0,-0.220377 0.064395,-0.4222425 0.2012772,-0.6118542 z"/>
 <path style="fill:#bf2033;stroke:none;stroke-width:.282584;stroke-miterlimit:4;stroke-dasharray:none" d="M 1.5914447,0.13230001 0.13229999,1.3321947 0.26440636,1.4336836 c 0.0878214,0.069495 0.16877896,0.1470783 0.23633099,0.2299357 0.0116711,0.014738 0.0308288,0.041208 0.0416927,0.056281 h 5.53014 c 0.010873,-0.015061 0.03001,-0.04153 0.041693,-0.056281 C 6.1818105,1.580762 6.2593989,1.5031771 6.3505936,1.4336836 L 6.4827,1.3321947 5.0235548,0.13494296 4.8914484,0.24964654 c -0.202656,0.17373347 -0.4660025,0.27010845 -0.7362106,0.27010845 -0.3411372,0 -0.5947025,-0.15488817 -0.7162954,-0.24843635 L 3.3074998,0.16982976 3.1793765,0.26867571 c -0.1182119,0.0935462 -0.3717803,0.24843632 -0.7162953,0.24843632 -0.2735851,0 -0.5335547,-0.096375 -0.7362109,-0.27010842 z"/>
 <path style="fill:none;stroke:#fff;stroke-width:.2646;stroke-linejoin:round;stroke-miterlimit:4;stroke-dasharray:none" d="m 0.7437068,2.3317545 c 0,0.2913382 -0.067411,0.451666 -0.2768259,0.6654923 -0.1587478,0.1603695 -0.3279424,0.4893656 -0.3279424,0.7352659 0,0.6094042 0.6587995,1.0370895 1.6045281,1.0370895 h 0.989802 c 0.1182119,0 0.2264176,0.042536 0.3007245,0.1147035 L 3.3074998,5.1597 3.5843257,4.8843057 C 3.6586277,4.8121367 3.766835,4.7696022 3.8850503,4.7696022 h 0.9931213 c 0.9423502,0 1.604528,-0.4276853 1.604528,-1.0370895 0,-0.2485723 -0.1725729,-0.5748964 -0.3279425,-0.7352659 C 5.9385914,2.7860928 5.8712928,2.6230927 5.8712928,2.3317545 c 0,-0.220377 0.064395,-0.4222425 0.2012774,-0.6118542 0.010873,-0.015061 0.03001,-0.04153 0.041693,-0.056281 C 6.1818105,1.580762 6.2593989,1.5031771 6.3505936,1.4336836 L 6.4827,1.3321947 5.0235548,0.13494296 4.8914484,0.24964654 c -0.202656,0.17373347 -0.4660025,0.27010845 -0.7362106,0.27010845 -0.3411372,0 -0.5947025,-0.15488817 -0.7162954,-0.24843635 L 3.3074998,0.16982976 3.1793765,0.26867576 c -0.1182119,0.0935462 -0.3717803,0.24843632 -0.7162953,0.24843632 -0.2735851,0 -0.5335547,-0.096375 -0.7362109,-0.27010842 L 1.5914447,0.13230001 0.1323,1.3321947 0.2644064,1.4336836 c 0.087821,0.069495 0.1687789,0.1470783 0.236331,0.2299357 0.011671,0.014738 0.030829,0.041208 0.041693,0.056281 0.1369027,0.1899457 0.2012765,0.3939384 0.2012764,0.6118542 z"/>
 <path style="fill:none;stroke:#fff;stroke-width:.2646px;stroke-linecap:butt;stroke-linejoin:miter;stroke-opacity:1" d="M 0.5292,1.7199 H 6.0858"/>
</svg>

<svg width="25" height="20" viewBox="0 0 6.615 5.292" xmlns="http://www.w3.org/2000/svg">
 <path style="fill:#003f87;stroke:none;stroke-width:.282584;stroke-miterlimit:4;stroke-dasharray:none" d="M6.073 1.72H.543c.136.19.2.394.2.612 0 .291-.067.451-.276.665-.159.16-.328.49-.328.736 0 .609.659 1.037 1.604 1.037h.99a.43.43 0 0 1 .301.114l.273.276.277-.276a.43.43 0 0 1 .301-.114h.993c.943 0 1.605-.428 1.605-1.037 0-.25-.173-.575-.328-.736-.216-.21-.284-.374-.284-.665 0-.22.065-.422.202-.612z"/>
 <path style="fill:#bf2033;stroke:none;stroke-width:.282584;stroke-miterlimit:4;stroke-dasharray:none" d="m1.591.132-1.459 1.2.132.102a1.533 1.533 0 0 1 .278.286h5.53c.011-.015.03-.042.042-.056a1.4 1.4 0 0 1 .237-.23l.132-.102L5.023.135 4.892.25c-.202.173-.466.27-.736.27A1.19 1.19 0 0 1 3.44.27l-.133-.1-.127.099a1.173 1.173 0 0 1-.716.248c-.274 0-.533-.096-.736-.27z"/>
 <path style="fill:none;stroke:#fff;stroke-width:.2646;stroke-linejoin:round;stroke-miterlimit:4;stroke-dasharray:none" d="M.744 2.332c0 .291-.068.451-.277.665-.159.16-.328.49-.328.736 0 .609.659 1.037 1.604 1.037h.99a.43.43 0 0 1 .301.114l.273.276.277-.276a.43.43 0 0 1 .301-.114h.993c.943 0 1.605-.428 1.605-1.037 0-.25-.173-.575-.328-.736-.216-.21-.284-.374-.284-.665 0-.22.065-.422.202-.612l.041-.056a1.4 1.4 0 0 1 .237-.23l.132-.102L5.023.135 4.892.25c-.202.173-.466.27-.736.27A1.19 1.19 0 0 1 3.44.27l-.133-.1-.127.099a1.173 1.173 0 0 1-.716.248c-.274 0-.533-.096-.736-.27L1.59.132l-1.459 1.2.132.102a1.533 1.533 0 0 1 .278.286c.137.19.202.394.202.612z"/>
 <path style="fill:none;stroke:#fff;stroke-width:.2646px;stroke-linecap:butt;stroke-linejoin:miter;stroke-opacity:1" d="M.53 1.72h5.556"/>
</svg>
